X:184
T:Polly Oliver's Rambles (Kerswell)
%%VWML:SBG-1-2-176-0
F:http://www.vwml.org/record/SBG/1/2/176
Z:Original Sibelius transcriptions by M. & S. Graebe
M:6/8
I:linebreak $
K:Bb
V:1 treble nm="P1"
V:1
 f | B2 B B2 B | c2 d g2 g | f2 c c2 d | B6 B | d3 fga | b3 g2 f | e2 d _a2 g | f3 B2 B |$ %9
 B2 B d2 e | ff z e2 d | c2 B e2 d | d3 d2 d | e2 d c2 B | d2 e g2 c | e2 d B2 B | B4 x2 | %17
T:Polly Oliver's Rambles (Kidson)
F:http://www.vwml.org/record/SBG/1/2/176
Z:Original Sibelius transcriptions by M. & S. Graebe
M:3/4
I:linebreak $
K:G
V:1 treble nm="P1"
V:1
 (GA) | B2 B2 B A | BA G2 GB | A2 E2 F2 | G4 GA | B2 B2 BA | BA G2 GB | A2 E2 F2 | G4 |$ G G | %10
 G2 g2 e2 | ed d2 BA | G2 g2 e2 | c4 (BA) | B2 B2 BA | BA G2 GA | A A E2 F2 | G4 x2 | %18
T:Polly Oliver's Rambles (Chappell)
F:http://www.vwml.org/record/SBG/1/2/176
Z:Original Sibelius transcriptions by M. & S. Graebe
M:3/4
I:linebreak $
K:Eb
V:1 treble nm="P1"
V:1
 B | e d c | B/G/ E F | G/E/ C D | E2 B | c d e | f/d/ B c/d/ | e G =A | B2 B |$ c/d/ e f | %10
 d B/A/G/F/ | E3/2 F/ G | c2 d | e d c | B/G/ E F | G/E/ C D | E2 x | %17

